X:1
T:From Night 'til Morn
M:4/4
L:1/4
K:G
G/2A/2|: "G" BBB A/2G/2|"C" A/2G/2A/2B/2 "G"GA/2B/2|"C" c/2B/2A/2G/2 G/2A/2B/2c/2|"G"de/2c/2 "D"BA
|"G" BBB A/2G/2|"C" A/2G/2A/2B/2 "G"GA/2B/2|"C" c/2B/2A/2G/2 G/2A/2B/2c/2|"D" A B/2A/2 "G"G "D" F:|
|: "G" G/2A/2B/2c/2 dd|"C"de/2d/2 "D"d2|"C" ed "G"gB|"G" de/2d/2 "D"BA|/ 
"G" BBB "D" A/2G/2|"C" A/2G/2A/2B/2 "G" GA/2B/2|"C" c/2B/2A/2G/2 G/2A/2B/2c/2|"D"A G "G"G2:|

